icons/folder-decorators.svg

<!--
  - The MIT License (MIT)
  -
  - Copyright (c) 2015-2024 Elior "Mallowigi" Boukhobza
  -
  - Permission is hereby granted, free of charge, to any person obtaining a copy
  - of this software and associated documentation files (the "Software"), to deal
  - in the Software without restriction, including without limitation the rights
  - to use, copy, modify, merge, publish, distribute, sublicense, and/or sell
  - copies of the Software, and to permit persons to whom the Software is
  - furnished to do so, subject to the following conditions:
  -
  - The above copyright notice and this permission notice shall be included in all
  - copies or substantial portions of the Software.
  -
  - THE SOFTWARE IS PROVIDED "AS IS", WITHOUT WARRANTY OF ANY KIND, EXPRESS OR
  - IMPLIED, INCLUDING BUT NOT LIMITED TO THE WARRANTIES OF MERCHANTABILITY,
  - FITNESS FOR A PARTICULAR PURPOSE AND NONINFRINGEMENT. IN NO EVENT SHALL THE
  - AUTHORS OR COPYRIGHT HOLDERS BE LIABLE FOR ANY CLAIM, DAMAGES OR OTHER
  - LIABILITY, WHETHER IN AN ACTION OF CONTRACT, TORT OR OTHERWISE, ARISING FROM,
  - OUT OF OR IN CONNECTION WITH THE SOFTWARE OR THE USE OR OTHER DEALINGS IN THE
  - SOFTWARE.
  -
  -->

<svg width="16px" height="16px" viewBox="0 0 24 24" fill="none" xmlns="http://www.w3.org/2000/svg">
  <path
      d="M10 4H4C2.89 4 2 4.89 2 6V18C2 19.097 2.903 20 4 20H20C21.097 20 22 19.097 22 18V8C22 7.46957 21.7893 6.96086 21.4142 6.58579C21.0391 6.21071 20.5304 6 20 6H12L10 4Z"
      fill="#AB47BC" data-folderColor="Decorators"/>
  <path
      d="M17.65 21.0802C16.8368 21.0802 16.0683 20.9239 15.3444 20.6113C14.6205 20.2991 13.9884 19.8727 13.4481 19.3321C12.9075 18.7918 12.481 18.1597 12.1689 17.4358C11.8563 16.7119 11.7 15.9433 11.7 15.1302C11.7 14.3071 11.8563 13.5362 12.1689 12.8174C12.481 12.0983 12.9075 11.4685 13.4481 10.9283C13.9884 10.3876 14.6205 9.96101 15.3444 9.64844C16.0683 9.33626 16.8368 9.18018 17.65 9.18018C18.4731 9.18018 19.244 9.33626 19.9628 9.64844C20.6819 9.96101 21.3116 10.3876 21.8519 10.9283C22.3926 11.4685 22.819 12.0983 23.1312 12.8174C23.4437 13.5362 23.6 14.3071 23.6 15.1302V15.9929C23.6 16.578 23.3993 17.0762 22.9979 17.4876C22.596 17.8993 22.1026 18.1052 21.5175 18.1052C21.1605 18.1052 20.8283 18.0258 20.5209 17.8672C20.2135 17.7085 19.9606 17.5003 19.7623 17.2424C19.4945 17.5102 19.1798 17.721 18.818 17.8749C18.4558 18.0284 18.0665 18.1052 17.65 18.1052C16.8269 18.1052 16.1254 17.815 15.5455 17.2347C14.9652 16.6548 14.675 15.9533 14.675 15.1302C14.675 14.3071 14.9652 13.6054 15.5455 13.0251C16.1254 12.4451 16.8269 12.1552 17.65 12.1552C18.4731 12.1552 19.1748 12.4451 19.7551 13.0251C20.335 13.6054 20.625 14.3071 20.625 15.1302V15.9929C20.625 16.2805 20.7143 16.506 20.8928 16.6694C21.0713 16.8333 21.2795 16.9152 21.5175 16.9152C21.7555 16.9152 21.9638 16.8333 22.1423 16.6694C22.3208 16.506 22.41 16.2805 22.41 15.9929V15.1302C22.41 13.8311 21.9413 12.7129 21.004 11.7756C20.0671 10.8386 18.9491 10.3702 17.65 10.3702C16.3509 10.3702 15.2327 10.8386 14.2954 11.7756C13.3585 12.7129 12.89 13.8311 12.89 15.1302C12.89 16.4293 13.3585 17.5473 14.2954 18.4842C15.2327 19.4215 16.3509 19.8902 17.65 19.8902H20.625V21.0802H17.65ZM17.65 16.9152C18.1458 16.9152 18.5673 16.7416 18.9144 16.3946C19.2615 16.0475 19.435 15.626 19.435 15.1302C19.435 14.6343 19.2615 14.2129 18.9144 13.8658C18.5673 13.5187 18.1458 13.3452 17.65 13.3452C17.1542 13.3452 16.7327 13.5187 16.3856 13.8658C16.0386 14.2129 15.865 14.6343 15.865 15.1302C15.865 15.626 16.0386 16.0475 16.3856 16.3946C16.7327 16.7416 17.1542 16.9152 17.65 16.9152Z"
      fill="#E1BEE7" data-folderIconColor="Decorators"/>
</svg>

<svg xmlns="http://www.w3.org/2000/svg" fill="none" viewBox="0 0 24 24"><path fill="#ab47bc" d="M10 4H4c-1.11 0-2 .89-2 2v12c0 1.097.903 2 2 2h16c1.097 0 2-.903 2-2V8a2 2 0 0 0-2-2h-8z" data-folderColor="Decorators"/><path fill="#e1bee7" d="M17.65 21.08a5.75 5.75 0 0 1-2.306-.469 6 6 0 0 1-1.896-1.279 6 6 0 0 1-1.28-1.896 5.8 5.8 0 0 1-.468-2.306q0-1.235.469-2.313a6.03 6.03 0 0 1 3.175-3.169 5.8 5.8 0 0 1 2.306-.468q1.235 0 2.313.468a6.06 6.06 0 0 1 3.168 3.17q.47 1.078.469 2.312v.863q0 .877-.602 1.495a2 2 0 0 1-1.48.617q-.537 0-.997-.238a2.2 2.2 0 0 1-.759-.625 2.96 2.96 0 0 1-2.112.863q-1.235 0-2.104-.87a2.87 2.87 0 0 1-.871-2.105q0-1.235.87-2.105t2.105-.87 2.105.87.87 2.105v.863q0 .431.268.676a.9.9 0 0 0 .624.246.9.9 0 0 0 .625-.246q.268-.245.268-.676v-.863q0-1.949-1.406-3.354T17.65 10.37t-3.355 1.406Q12.89 13.18 12.89 15.13t1.405 3.354q1.407 1.406 3.355 1.406h2.975v1.19zm0-4.165q.744 0 1.264-.52.521-.521.521-1.265t-.52-1.264a1.72 1.72 0 0 0-1.265-.52q-.744 0-1.264.52t-.521 1.264.52 1.265q.522.52 1.265.52" data-folderIconColor="Decorators"/></svg>
